src/assets/icons/pul-icon-remove.svg

<!-- Generated by IcoMoon.io -->
<svg version="1.1" xmlns="http://www.w3.org/2000/svg" width="16" height="16" viewBox="0 0 16 16">
<title>remove</title>
<path d="M4.602 10.731c0.065 0.065 0.151 0.097 0.236 0.097s0.171-0.033 0.236-0.097l2.593-2.593 2.593 2.593c0.065 0.065 0.151 0.097 0.236 0.097s0.171-0.033 0.236-0.097c0.13-0.13 0.13-0.341 0-0.471l-2.594-2.593 2.593-2.593c0.13-0.13 0.13-0.341 0-0.471s-0.341-0.13-0.471 0l-2.593 2.593-2.593-2.593c-0.13-0.13-0.341-0.13-0.471 0s-0.13 0.341 0 0.471l2.593 2.593-2.593 2.593c-0.13 0.13-0.13 0.341 0 0.471zM15 0h-14.667c-0.184 0-0.333 0.149-0.333 0.333v14.667c0 0.184 0.149 0.333 0.333 0.333h14.667c0.184 0 0.333-0.149 0.333-0.333v-14.667c0-0.184-0.149-0.333-0.333-0.333zM14.667 14.667h-14v-14h14v14z"></path>
</svg>

<svg xmlns="http://www.w3.org/2000/svg" viewBox="0 0 16 16">
    <path d="M4.602 10.731a.333.333 0 0 0 .472 0l2.593-2.593 2.593 2.593a.333.333 0 0 0 .472 0 .333.333 0 0 0 0-.471L8.138 7.667l2.593-2.593a.333.333 0 0 0-.471-.471L7.667 7.196 5.074 4.603a.333.333 0 0 0-.471.471l2.593 2.593-2.593 2.593a.333.333 0 0 0 0 .471zM15 0H.333A.333.333 0 0 0 0 .333V15c0 .184.149.333.333.333H15a.333.333 0 0 0 .333-.333V.333A.333.333 0 0 0 15 0zm-.333 14.667h-14v-14h14v14z"/>
</svg>
